X: 322
T: A Health to Betty
N: "Scots Air" handwritten next to title; "My Mither's aye glourin' o'er me" handwritten in dance description.
P: Longways for as many as will
%R: jig
B: "The Dancing-Master: Containing Directions and Tunes for Dancing" printed by W. Pearson for John Walsh, London ca. 1709
S: 7: DMDfD http://digital.nls.uk/special-collections-of-printed-music/pageturner.cfm?id=89751228 p.55 "F 4"
Z: 2013 John Chambers <jc:trillian.mit.edu>
M: 6/4
L: 1/4
K: Gm
% - - - - - - - - - - - - - - - - - - - - - - - - -
G |\
G>AG ^F>ED | B3 A2d | d>ed c2A | f3 d2e |\
f>e d/c/ B2B | c>B A/G/ ^F2F | G>AG ^F>ED | B3 A2 |]
% - - - - - - - - - - - - - - - - - - - - - - - - -
%%begintext align
%% Lead up a D. forward and back, set and turn S. .| That again :| First cu. sides, turn her once and
%% an half about .:| Sides each with the 2. and turn them :|:| Do thus to the last, the rest following
%% and doing the like.
%%endtext
%%sep 1 1 300
%%begintext align
%% Sides all, set and turn S. .| That again :| First cu. meet a D. back again, fall into the 2. places,
%% and turn your own .:| Do this Change to the last, the rest following.
%%endtext
%%sep 1 1 300
%%begintext align
%% Arms all, set and turn S. .| That again :| First cu. do a D. back, meet again, take both hands, slip
%% down between the 2. turn S .:| Do this to the last, the rest following.
%%endtext
%%sep 1 8 500

%%sep 1 1 500
%%sep 1 1 500
